assets/rootsbedrock/original.svg

<svg viewBox="0 0 24 24" xmlns="http://www.w3.org/2000/svg" fill="#525DDC"><path d="m.4 0-.4.4v5.2l.343.343 11.314-1.886.343.343v3.6l11.52-1.92.48-.48v-5.2l-.4-.4zm.08 9.92-.48.48v3.2l.343.343 11.657-1.943v-4zm11.52 2.08v4l11.52-1.92.48-.48v-3.2l-.343-.343zm-11.52 5.92-.48.48v5.2l.4.4h23.2l.4-.4v-5.2l-.343-.343-11.314 1.886-.343-.343v-3.6z"/></svg>

<svg xmlns="http://www.w3.org/2000/svg" fill="#525ddc" viewBox="0 0 24 24"><path d="M.4 0 0 .4v5.2l.343.343 11.314-1.886L12 4.4V8l11.52-1.92.48-.48V.4l-.4-.4zm.08 9.92L0 10.4v3.2l.343.343L12 12V8zM12 12v4l11.52-1.92.48-.48v-3.2l-.343-.343zM.48 17.92 0 18.4v5.2l.4.4h23.2l.4-.4v-5.2l-.343-.343-11.314 1.886L12 19.6V16z"/></svg>
